pillar.svg

<svg fill="currentColor" viewBox="0 0 24 24"><path d="M6 5h12a1 1 0 0 1 1 1 1 1 0 0 1-1 1H6a1 1 0 0 1-1-1 1 1 0 0 1 1-1m15-3v2H3V2zm-6 6h2v14h-2zM7 8h2v14H7zm4 0h2v14h-2z"/></svg>

<svg  viewBox="0 0 24 24" fill="currentColor"><path  d="M6,5H18A1,1 0 0,1 19,6A1,1 0 0,1 18,7H6A1,1 0 0,1 5,6A1,1 0 0,1 6,5M21,2V4H3V2H21M15,8H17V22H15V8M7,8H9V22H7V8M11,8H13V22H11V8Z"/></svg>
